X:1
T:Mister Bach
M:4/4
L:1/4
K:D
 B2 f2| d3 c| B d c- B| ^A c F2| B F/2F/2 c F| d c B A3/4 A/4| G/2G/2 F E D|\
 F4|
